assets/icons/qvision/spa.svg

<svg xmlns="http://www.w3.org/2000/svg" height="24" viewBox="0 0 24 24" width="24"><path d="M0 0h24v24H0V0zm13.97 21.49c-.63.23-1.29.4-1.97.51.68-.12 1.33-.29 1.97-.51zM12 22c-.68-.12-1.33-.29-1.97-.51.64.22 1.29.39 1.97.51z" fill="none"/><path d="M8.55 12c-1.07-.71-2.25-1.27-3.53-1.61 1.28.34 2.46.9 3.53 1.61zm10.43-1.61c-1.29.34-2.49.91-3.57 1.64 1.08-.73 2.28-1.3 3.57-1.64z"/><path d="M15.49 9.63c-.18-2.79-1.31-5.51-3.43-7.63-2.14 2.14-3.32 4.86-3.55 7.63 1.28.68 2.46 1.56 3.49 2.63 1.03-1.06 2.21-1.94 3.49-2.63zm-6.5 2.65c-.14-.1-.3-.19-.45-.29.15.11.31.19.45.29zm6.42-.25c-.13.09-.27.16-.4.26.13-.1.27-.17.4-.26zM12 15.45C9.85 12.17 6.18 10 2 10c0 5.32 3.36 9.82 8.03 11.49.63.23 1.29.4 1.97.51.68-.12 1.33-.29 1.97-.51C18.64 19.82 22 15.32 22 10c-4.18 0-7.85 2.17-10 5.45z"/></svg>

<svg width="24" height="24" viewBox="0 0 24 24" fill="none" xmlns="http://www.w3.org/2000/svg">
<g clip-path="url(#clip0_147_6293)">
<path d="M8.55002 12C7.48002 11.29 6.30002 10.73 5.02002 10.39C6.30002 10.73 7.48002 11.29 8.55002 12ZM18.98 10.39C17.69 10.73 16.49 11.3 15.41 12.03C16.49 11.3 17.69 10.73 18.98 10.39Z" fill="#323232"/>
<path d="M15.49 9.63C15.31 6.84 14.18 4.12 12.06 2C9.92 4.14 8.74 6.86 8.51 9.63C9.79 10.31 10.97 11.19 12 12.26C13.03 11.2 14.21 10.32 15.49 9.63ZM8.99 12.28C8.85 12.18 8.69 12.09 8.54 11.99C8.69 12.1 8.85 12.18 8.99 12.28ZM15.41 12.03C15.28 12.12 15.14 12.19 15.01 12.29C15.14 12.19 15.28 12.12 15.41 12.03ZM12 15.45C9.85 12.17 6.18 10 2 10C2 15.32 5.36 19.82 10.03 21.49C10.66 21.72 11.32 21.89 12 22C12.68 21.88 13.33 21.71 13.97 21.49C18.64 19.82 22 15.32 22 10C17.82 10 14.15 12.17 12 15.45Z" fill="#323232"/>
</g>
<defs>
<clipPath id="clip0_147_6293">
<rect width="24" height="24" fill="white"/>
</clipPath>
</defs>
</svg>
